X:1
T:Title
%%score { ( 1 3 ) | ( 2 4 ) }
L:1/8
M:4/4
K:Ab
V:1 treble nm="Grand Piano"
V:3 treble 
V:2 bass 
V:4 bass 
V:1
 z4 z2[Q:1/4=100] [CE]>[CE] | [CA]2 [CA]2 [Ec]2 [CEA]2 | [DFA]2 [A,DF]4 [A,DF]>[A,DF] | %3
 [CE]2 [CE]2 A2 A2 |[M:3/4] B6 |[M:1/4] A>B |[M:4/4] c2 c2 e2 [EA]2 | B2 z2 z4 | %8
 [CEA]2 [CEA]2 [B,EG]>A [DEB]2 |[M:3/4] [CEA]6 |[M:1/4] [B,EG]>[CEA] | %11
[M:4/4] [DEB]2 [DEB]2 [Ec]2 [DEB]2 | [CEB]2 [CEA]4 [A,CA]>[A,EG] | [A,DF]2 [A,EG]2 [A,FA]2 [FB]2 | %14
[M:3/4] [=Ec]6 |[M:1/4] c>d |[M:4/4] e2 e2 e2 c2 | [Fd]2 [Fd]4 [FA]>[FB] | c2 d2 c2 B2 | %19
[M:3/4] [CA]6 |[M:1/4] [CE]>[CE] |[M:4/4] z4 z2 A2 | [=Ec]2 [Ec]4 [EG]>[EG] | %23
 [FA]2 [FA]2 [=DB]2 [DA]2 |[M:3/4] [EG]6 |[M:1/4] [CA]>[DB] |[M:4/4] c2 c2 e2 c2 | %27
 [Fd]2 [Fd]4 [A,DF]>[DFB] | [CEA]2 [B,EG]2 [Ec]2 [DEB]2 |[M:3/4] [CEA]6 |] %30
V:2
 z4 z2 [A,,A,]>[A,,A,] | [A,,A,]2 [A,,A,]2 [A,,A,]2 A,,2 | D,2 D,4 D,>D, | %3
 [A,,A,]2 [A,,A,]2 [F,A,C]2 [F,A,=D]2 |[M:3/4] [E,G,E]6 |[M:1/4] [A,C]>[A,D] | %6
[M:4/4] [A,E]2 [A,E]2 [A,CE]2 [C,A,]2 | [D,A,]>[C,=A,] [B,,B,]4 C,>D, | E,2 E,2 z z/ E/ E,2 | %9
[M:3/4] A,,6 |[M:1/4] E,>E, |[M:4/4] E,2 E,2 E,2 E,2 | A,,2 A,,4 A,,>C, | D,2 D,2 D,2 [D,F,]2 | %14
[M:3/4] [C,G,]6 |[M:1/4][K:treble] [A,E]>[A,B,E] |[M:4/4] [A,CE]2 [A,CE]2 [A,C_G]2 [A,=G]2 | %17
 [D,A,]2 [D,A,]4 [D,A,]>[D,A,] | [E,A,E]2 [E,B,E]2 [E,A,E]2 [E,G,D]2 |[M:3/4] [A,,A,]6 | %20
[M:1/4] [A,,A,]>[A,,A,] |[M:4/4] [D,A,D]2 [D,A,D]2 D>E [D,F,]2 | [C,G,]2 [C,G,]4 [C,C]>[C,C] | %23
 [F,C]2 [F,C]2 [B,,B,]2 [B,,B,]2 |[M:3/4] [E,B,]6 |[M:1/4] [A,,A,]>[A,,A,] | %26
[M:4/4][K:treble] [A,E]2 [A,E]2 [A,CE]2 [A,E_G]2 | [D,D]2 [D,D]4 D,>D, | E,2 E,2 E,2 E,2 | %29
[M:3/4] A,,6 |] %30
V:3
 x8 | x8 | x8 | x8 |[M:3/4] x6 |[M:1/4] x2 |[M:4/4] x8 | F->[Fc] [Fd]4 [DEc]>[DFB] | x8 | %9
[M:3/4] x6 |[M:1/4] x2 |[M:4/4] x8 | x8 | x8 |[M:3/4] x6 |[M:1/4] x2 |[M:4/4] x8 | x8 | x8 | %19
[M:3/4] x6 |[M:1/4] x2 |[M:4/4] F2 F2 F>G F->[FB] | x8 | x8 |[M:3/4] x6 |[M:1/4] x2 |[M:4/4] x8 | %27
 x8 | x8 |[M:3/4] x6 |] %30
V:4
 x8 | x8 | x8 | x8 |[M:3/4] x6 |[M:1/4] x2 |[M:4/4] x8 | x8 | z4 E,2 z2 |[M:3/4] x6 |[M:1/4] x2 | %11
[M:4/4] x8 | x8 | x8 |[M:3/4] x6 |[M:1/4][K:treble] x2 |[M:4/4] x8 | x8 | x8 |[M:3/4] x6 | %20
[M:1/4] x2 |[M:4/4] z4 [D,A,]2 z2 | x8 | x8 |[M:3/4] x6 |[M:1/4] x2 |[M:4/4][K:treble] x8 | x8 | %28
 x8 |[M:3/4] x6 |] %30

